X:990
T: All Round the Room
T: Timpeall an tSeomra
S: B.Breathnach:"Ceol Rince na hEireann" IV/106
Z: B.Black
L: 1/8
M: 4/4
R: reel
K: D
D2 FA d2 AF|d2 AF GE E2|D2 FA d2 AF|GBAG FD D2 :|
dcdB cdec|dcde fBBc|dcdB cdec|dBAG FD D2|
dcdB cdec|dcde fBBd|cAec dABG|FAEG FD D2 ||
